app/assets/images/heroicons/mini/map.svg

<svg width="20" height="20" viewBox="0 0 20 20" fill="none" xmlns="http://www.w3.org/2000/svg">
<path fill-rule="evenodd" clip-rule="evenodd" d="M8.15686 2.17562C7.78961 2.02365 7.37706 2.02365 7.00981 2.17562L2.92647 3.86528C2.3657 4.09732 2 4.64441 2 5.2513V16.128C2 17.1967 3.08594 17.9226 4.07353 17.514L7.58333 16.0616L11.8431 17.8243C12.2104 17.9763 12.6229 17.9763 12.9902 17.8243L17.0735 16.1347C17.6343 15.9026 18 15.3555 18 14.7486V3.87199C18 2.8032 16.9141 2.07731 15.9265 2.48596L12.4167 3.9383L8.15686 2.17562ZM7.58008 5C7.99429 5 8.33008 5.33579 8.33008 5.75V12.25C8.33008 12.6642 7.99429 13 7.58008 13C7.16586 13 6.83008 12.6642 6.83008 12.25V5.75C6.83008 5.33579 7.16586 5 7.58008 5ZM13.1699 7.75C13.1699 7.33579 12.8341 7 12.4199 7C12.0057 7 11.6699 7.33579 11.6699 7.75V14.25C11.6699 14.6642 12.0057 15 12.4199 15C12.8341 15 13.1699 14.6642 13.1699 14.25V7.75Z" fill="#0F172A"/>
</svg>

<svg xmlns="http://www.w3.org/2000/svg" viewBox="0 0 20 20" fill="currentColor" aria-hidden="true" data-slot="icon">
  <path fill-rule="evenodd" d="M8.157 2.176a1.5 1.5 0 0 0-1.147 0l-4.084 1.69A1.5 1.5 0 0 0 2 5.25v10.877a1.5 1.5 0 0 0 2.074 1.386l3.51-1.452 4.26 1.762a1.5 1.5 0 0 0 1.146 0l4.083-1.69A1.5 1.5 0 0 0 18 14.75V3.872a1.5 1.5 0 0 0-2.073-1.386l-3.51 1.452-4.26-1.762ZM7.58 5a.75.75 0 0 1 .75.75v6.5a.75.75 0 0 1-1.5 0v-6.5A.75.75 0 0 1 7.58 5Zm5.59 2.75a.75.75 0 0 0-1.5 0v6.5a.75.75 0 0 0 1.5 0v-6.5Z" clip-rule="evenodd"/>
</svg>
